assets/images/edit_icon.svg

<svg width="57" height="50" viewBox="0 0 57 50" fill="none" xmlns="http://www.w3.org/2000/svg">
<g clip-path="url(#clip0)">
<path d="M39.275 8.10704L48.075 16.907C48.2529 17.0858 48.3528 17.3278 48.3528 17.58C48.3528 17.8323 48.2529 18.0743 48.075 18.253L26.769 39.558L17.716 40.558C17.4325 40.5899 17.1455 40.5574 16.8762 40.4631C16.6069 40.3688 16.3624 40.2151 16.1607 40.0134C15.9589 39.8117 15.8052 39.5671 15.7109 39.2978C15.6166 39.0286 15.5842 38.7416 15.616 38.458L16.616 29.405L37.929 8.10704C38.1078 7.9291 38.3498 7.8292 38.602 7.8292C38.8542 7.8292 39.0962 7.9291 39.275 8.10704ZM55.075 5.87304L50.319 1.11204C49.604 0.399712 48.6358 -0.000244141 47.6265 -0.000244141C46.6172 -0.000244141 45.649 0.399712 44.934 1.11204L41.48 4.56604C41.3021 4.74482 41.2022 4.9868 41.2022 5.23904C41.2022 5.49128 41.3021 5.73326 41.48 5.91204L50.28 14.712C50.4588 14.89 50.7008 14.9899 50.953 14.9899C51.2052 14.9899 51.4472 14.89 51.626 14.712L55.079 11.259C55.7913 10.544 56.1913 9.57584 56.1913 8.56654C56.1913 7.55724 55.7913 6.58907 55.079 5.87404L55.075 5.87304ZM37.461 33.764V43.693H6.243V12.477H28.662C28.972 12.4747 29.2691 12.3525 29.491 12.136L33.391 8.23604C33.5552 8.07227 33.667 7.86344 33.7124 7.63603C33.7577 7.40862 33.7345 7.17287 33.6457 6.95865C33.5569 6.74444 33.4065 6.56141 33.2136 6.43277C33.0207 6.30412 32.7939 6.23565 32.562 6.23604H4.683C3.44159 6.23631 2.25106 6.72936 1.37297 7.60689C0.494882 8.48442 0.0010601 9.67463 0 10.916L0 45.256C0.000265114 46.498 0.493736 47.689 1.37191 48.5671C2.25009 49.4453 3.44107 49.9388 4.683 49.939H39.022C40.2631 49.9375 41.4528 49.4434 42.3299 48.5654C43.207 47.6873 43.6997 46.4971 43.7 45.256V29.861C43.6994 29.6296 43.6304 29.4035 43.5016 29.2111C43.3728 29.0188 43.19 28.8689 42.9762 28.7803C42.7623 28.6917 42.5271 28.6683 42.3 28.7131C42.0729 28.7579 41.8641 28.8689 41.7 29.032L37.8 32.932C37.5835 33.155 37.462 33.4533 37.461 33.764Z" fill="#004C77"/>
</g>
<defs>
<clipPath id="clip0">
<rect width="56.191" height="49.938" fill="white"/>
</clipPath>
</defs>
</svg>

<svg xmlns="http://www.w3.org/2000/svg" width="56.191" height="49.938" viewBox="0 0 56.191 49.938">
  <path id="edit_icon" d="M39.275,8.114l8.8,8.8a.954.954,0,0,1,0,1.346L26.769,39.565l-9.053,1a1.9,1.9,0,0,1-2.1-2.1l1-9.053L37.929,8.114A.954.954,0,0,1,39.275,8.114Zm15.8-2.234L50.319,1.119a3.815,3.815,0,0,0-5.385,0L41.48,4.573a.954.954,0,0,0,0,1.346l8.8,8.8a.954.954,0,0,0,1.346,0l3.453-3.453a3.815,3.815,0,0,0,0-5.385ZM37.461,33.771V43.7H6.243V12.484H28.662a1.2,1.2,0,0,0,.829-.341l3.9-3.9a1.171,1.171,0,0,0-.829-2H4.683A4.684,4.684,0,0,0,0,10.923V45.263a4.684,4.684,0,0,0,4.683,4.683H39.022A4.684,4.684,0,0,0,43.7,45.263V29.868a1.173,1.173,0,0,0-2-.829l-3.9,3.9A1.2,1.2,0,0,0,37.461,33.771Z" transform="translate(0 -0.007)" fill="#f98367"/>
</svg>
